flaticon/arrows/up-arrow-6.svg

<svg xmlns="http://www.w3.org/2000/svg" width="32" height="32" viewBox="0 0 24 24">
    <path d="M 12 0 C 5.382812 0 0 5.382812 0 12 C 0 18.617188 5.382812 24 12 24 C 18.617188 24 24 18.617188 24 12 C 24 5.382812 18.617188 0 12 0 Z M 12 23.109375 C 5.875 23.109375 0.890625 18.125 0.890625 12 C 0.890625 5.875 5.875 0.890625 12 0.890625 C 18.125 0.890625 23.109375 5.875 23.109375 12 C 23.109375 18.125 18.125 23.109375 12 23.109375 Z M 12 23.109375"/>
    <path d="M 7.242188 10.128906 L 7.871094 10.757812 L 11.554688 7.074219 L 11.554688 18 C 11.554688 18.246094 11.753906 18.445312 12 18.445312 C 12.246094 18.445312 12.445312 18.246094 12.445312 18 L 12.445312 7.074219 L 16.128906 10.757812 L 16.757812 10.128906 L 12 5.371094 Z M 7.242188 10.128906"/>
</svg>

<svg xmlns="http://www.w3.org/2000/svg" width="32" height="32" viewBox="0 0 24 24">
    <path d="M12 0C5.383 0 0 5.383 0 12s5.383 12 12 12 12-5.383 12-12S18.617 0 12 0zm0 23.11C5.875 23.11.89 18.124.89 12 .89 5.875 5.876.89 12 .89 18.125.89 23.11 5.876 23.11 12c0 6.125-4.985 11.11-11.11 11.11zm0 0"/>
    <path d="M7.242 10.129l.63.629 3.683-3.684V18a.445.445 0 1 0 .89 0V7.074l3.684 3.684.629-.63L12 5.372zm0 0"/>
</svg>
